uiw/coffee.svg

<svg xmlns="http://www.w3.org/2000/svg" viewBox="0 0 20 20" height="1em" width="1em">
  <path fill="#555" d="M1.38197865,8.50468479 L1.38197865,13.5631773 C1.38197865,16.3563179 3.64597172,18.6206981 6.43875483,18.6206981 L10.1164674,18.6206981 C12.9092315,18.6206981 15.1731941,16.3563849 15.1731941,13.5632501 L15.1731941,8.50570164 L1.38197865,8.50468479 Z M11.887167,0.161126688 C12.1790318,0.405797785 12.2173171,0.840778552 11.9726796,1.13268342 C11.3308774,1.89849054 11.1893646,2.41967954 11.3874211,2.76994178 C11.4488712,2.8786161 11.9803359,3.71845921 12.1019698,3.97653935 C12.3777947,4.56177877 12.4141083,5.12932211 12.1755421,5.79896276 C12.0096241,6.26468436 11.7585443,6.7072078 11.424894,7.12657781 L15.306126,7.12640952 C15.7430066,7.14261066 16.0599124,7.25440509 16.2568432,7.46179281 C16.3655095,7.57622922 16.4442154,7.72017702 16.4929381,7.89363623 L16.5522181,7.89203692 L16.5522181,7.89203692 C18.4563755,7.89203692 20,9.43587318 20,11.3402917 C20,13.2447103 18.4563755,14.7885465 16.5522181,14.7885465 L16.4365643,14.7847793 C15.8659428,17.7555445 13.2532898,20 10.1164728,20 L6.43872469,20 C2.88430599,20 0.00288657549,17.1180836 0.00288657549,13.5631773 L0.00286521846,8.33673221 C-0.0167941967,7.90387044 0.0647147488,7.59740722 0.247392055,7.41734256 C0.430069361,7.2372779 0.699557002,7.14030022 1.05585498,7.12640952 L4.00913096,7.12670462 C4.04659087,7.06454857 4.09457662,7.00729401 4.15287076,6.95765169 C4.76165561,6.43922067 5.15955413,5.89859775 5.35998008,5.33601443 C5.47365368,5.01693962 5.46146952,4.82651397 5.33804655,4.56463778 C5.25990012,4.39882836 4.76908244,3.62321744 4.67052633,3.44892126 C4.13215786,2.49681825 4.42865329,1.40483106 5.39929252,0.246650998 C5.64393006,-0.0452538722 6.07885117,-0.0835444104 6.370716,0.161126688 C6.66258084,0.405797785 6.70086613,0.840778552 6.45622859,1.13268342 C5.81442645,1.89849054 5.67291366,2.41967954 5.87097011,2.76994178 C5.93242021,2.8786161 6.46388494,3.71845921 6.58551882,3.97653935 C6.86134377,4.56177877 6.89765735,5.12932211 6.65909115,5.79896276 C6.49317317,6.26468436 6.24209337,6.7072078 5.90844306,7.12657781 L6.76735645,7.12670462 C6.80481636,7.06454857 6.8528021,7.00729401 6.91109625,6.95765169 C7.5198811,6.43922067 7.91777962,5.89859775 8.11820556,5.33601443 C8.23187916,5.01693962 8.21969501,4.82651397 8.09627204,4.56463778 C8.0181256,4.39882836 7.52730793,3.62321744 7.42875181,3.44892126 C6.89038335,2.49681825 7.18687878,1.40483106 8.15751801,0.246650998 C8.40215555,-0.0452538722 8.83707666,-0.0835444104 9.12894149,0.161126688 C9.42080633,0.405797785 9.45909161,0.840778552 9.21445407,1.13268342 C8.57265194,1.89849054 8.43113915,2.41967954 8.6291956,2.76994178 C8.6906457,2.8786161 9.22211043,3.71845921 9.34374431,3.97653935 C9.61956926,4.56177877 9.65588284,5.12932211 9.41731664,5.79896276 C9.25139865,6.26468436 9.00031885,6.7072078 8.66666855,7.12657781 L9.52558193,7.12670462 C9.56304184,7.06454857 9.61102759,7.00729401 9.66932174,6.95765169 C10.2781066,6.43922067 10.6760051,5.89859775 10.8764311,5.33601443 C10.9901047,5.01693962 10.9779205,4.82651397 10.8544975,4.56463778 C10.7763511,4.39882836 10.2855334,3.62321744 10.1869773,3.44892126 C9.64860884,2.49681825 9.94510427,1.40483106 10.9157435,0.246650998 C11.160381,-0.0452538722 11.5953021,-0.0835444104 11.887167,0.161126688 Z M16.5522181,9.27133884 L16.5522181,13.4092446 L16.5522181,13.4092446 C17.6947125,13.4092446 18.6208873,12.4829429 18.6208873,11.3402917 C18.6208873,10.1976406 17.6947125,9.27133884 16.5522181,9.27133884 Z"/>
</svg>

<svg xmlns="http://www.w3.org/2000/svg" viewBox="0 0 20 20" height="1em" width="1em">
  <path fill="#555" d="M1.382 8.505v5.058a5.057 5.057 0 0 0 5.057 5.058h3.677a5.057 5.057 0 0 0 5.057-5.058V8.506L1.382 8.505ZM11.887.16a.69.69 0 0 1 .086.972c-.642.765-.784 1.287-.586 1.637.062.109.593.948.715 1.207.276.585.312 1.152.074 1.822a4.622 4.622 0 0 1-.751 1.328h3.881c.437.016.754.127.95.335.11.114.188.258.237.432l.06-.002a3.448 3.448 0 0 1 0 6.897l-.116-.004A6.438 6.438 0 0 1 10.117 20H6.438a6.436 6.436 0 0 1-6.436-6.437V8.337c-.02-.433.062-.74.244-.92.183-.18.453-.277.809-.29h2.953a.689.689 0 0 1 .144-.17C4.762 6.44 5.16 5.9 5.36 5.337c.114-.32.101-.51-.022-.771-.078-.166-.569-.942-.667-1.116-.539-.952-.242-2.044.728-3.202a.69.69 0 1 1 1.057.886c-.642.765-.783 1.287-.585 1.637.061.109.593.948.715 1.207.275.585.312 1.152.073 1.822a4.622 4.622 0 0 1-.75 1.328h.858a.689.689 0 0 1 .144-.17C7.52 6.44 7.918 5.9 8.118 5.337c.114-.32.102-.51-.022-.771-.078-.166-.569-.942-.667-1.116-.539-.952-.242-2.044.729-3.202a.69.69 0 1 1 1.056.886c-.641.765-.783 1.287-.585 1.637.062.109.593.948.715 1.207.276.585.312 1.152.073 1.822a4.622 4.622 0 0 1-.75 1.328h.859a.689.689 0 0 1 .143-.17c.61-.518 1.007-1.058 1.207-1.621.114-.32.102-.51-.022-.771-.078-.166-.568-.942-.667-1.116-.538-.952-.242-2.044.729-3.202a.69.69 0 0 1 .971-.086Zm4.665 9.11v4.138a2.069 2.069 0 0 0 0-4.138Z"/>
</svg>
